X: 26854
T: Mind The Nettles!
R: reel
M: 4/4
K: Dmajor
FE|:DFA,D FEDE|FAAB ADF/G/A|B2 B/=c/^c dBAF|G/F/E ED CEEC|
DFA,D FEDE|FAAB ADF/G/A|B2 B/=c/^c dBAF|1 GFEG FDDC:|2 GFEG FDDc||
|:dABd A2 F/G/A|dAfd edBc|dfdB AdFA|G2 EG FDDc|
dABd A2 F/G/A|dAfd edBc|dfaf gfec|1 dBAG FDDc:|2 dBAG F2 EC||

